assets/images/system/icon/eye-icon.svg

<svg xmlns="http://www.w3.org/2000/svg" width="24" height="24" fill="none" xmlns:v="https://vecta.io/nano"><path d="M12.015 7c4.751 0 8.063 3.012 9.504 4.636C20.118 13.473 16.806 17 12.015 17c-4.42 0-7.93-3.536-9.478-5.407C4.03 9.946 7.354 7 12.015 7zm0-2C4.446 5 0 11.551 0 11.551S4.835 19 12.015 19C19.748 19 24 11.551 24 11.551S19.709 5 12.015 5zM12 10c1.103 0 2 .897 2 2s-.897 2-2 2-2-.897-2-2 .897-2 2-2zm0-2a4 4 0 1 0 0 8 4 4 0 1 0 0-8z" fill="#017113"/></svg>

<svg width="24" height="24" viewBox="0 0 24 24" fill="none" xmlns="http://www.w3.org/2000/svg">
<path d="M12.015 7C16.766 7 20.078 10.012 21.519 11.636C20.118 13.473 16.806 17 12.015 17C7.595 17 4.085 13.464 2.537 11.593C4.03 9.946 7.354 7 12.015 7ZM12.015 5C4.446 5 0 11.551 0 11.551C0 11.551 4.835 19 12.015 19C19.748 19 24 11.551 24 11.551C24 11.551 19.709 5 12.015 5ZM12 10C13.103 10 14 10.897 14 12C14 13.103 13.103 14 12 14C10.897 14 10 13.103 10 12C10 10.897 10.897 10 12 10ZM12 8C9.791 8 8 9.792 8 12C8 14.209 9.791 16 12 16C14.209 16 16 14.209 16 12C16 9.792 14.209 8 12 8Z" fill="#017113"/>
</svg>
